svgs/sharp-regular/diagram-sankey.svg

<svg xmlns="http://www.w3.org/2000/svg" viewBox="0 0 576 512"><!--! Font Awesome Pro 6.6.0 by @fontawesome - https://fontawesome.com License - https://fontawesome.com/license (Commercial License) Copyright 2024 Fonticons, Inc. --><path d="M298.5 32L312 32l240 0 24 0 0 48-24 0L325.5 80l-81 132.5-7 11.5L224 224 24 224 0 224l0-48 24 0 186.5 0 81-132.5 7-11.5zM150.6 320L24 320 0 320l0-48 24 0 528 0 24 0 0 48-24 0-346.1 0 64 112L552 432l24 0 0 48-24 0-296 0-13.9 0-6.9-12.1L150.6 320z"/></svg>

<svg xmlns="http://www.w3.org/2000/svg" viewBox="0 0 576 512"><!--! Font Awesome Pro 6.4.2 by @fontawesome - https://fontawesome.com License - https://fontawesome.com/license (Commercial License) Copyright 2023 Fonticons, Inc. --><path d="M298.5 32H312 552h24V80H552 325.5l-81 132.5-7 11.5H224 24 0V176H24 210.5l81-132.5 7-11.5zM150.6 320H24 0V272H24 552h24v48H552 205.9l64 112H552h24v48H552 256 242.1l-6.9-12.1L150.6 320z"/></svg>
